X: 63
T:Difyrrwch Gwyr Llangallo
T:Amusement of the Men of Llangallo
M:6/8
L:1/8
Q:130
C:Trad
S:Cat's Claw
A:Wales
Z:brian_martin12345@yahoo.com
K:G
(B/c/)|dBG dBG|dBG G2 (c/d/)|ecA ecA|ecA A2 B/c/|dBG dBG|dBG G2 (F/G/)|!
AFD DEF|GBd G2:||
(B/c/)|dBG dBG|gec e2 (A/B/)|cAF cAF|!dBG B2 B/c/|dBG dBG|gec e2 (d/c/)|
BdB cAF|GBd G2:||

